build/svg/cmd/sc_bezierfill.svg

<?xml version="1.0" encoding="UTF-8" standalone="no"?>
<svg
   xmlns:dc="http://purl.org/dc/elements/1.1/"
   xmlns:cc="http://creativecommons.org/ns#"
   xmlns:rdf="http://www.w3.org/1999/02/22-rdf-syntax-ns#"
   xmlns:svg="http://www.w3.org/2000/svg"
   xmlns="http://www.w3.org/2000/svg"
   xmlns:sodipodi="http://sodipodi.sourceforge.net/DTD/sodipodi-0.dtd"
   xmlns:inkscape="http://www.inkscape.org/namespaces/inkscape"
   viewBox="0 0 16 16"
   version="1.1"
   id="svg8"
   sodipodi:docname="sc_bezierfill.svg"
   inkscape:version="0.92.5 (2060ec1f9f, 2020-04-08)"><metadata
   id="metadata14">
  <rdf:RDF>
    <cc:Work
       rdf:about="">
      <dc:format>image/svg+xml</dc:format>
      <dc:type
         rdf:resource="http://purl.org/dc/dcmitype/StillImage" />
    </cc:Work>
  </rdf:RDF>
</metadata>
<defs
   id="defs12" />
<sodipodi:namedview
   pagecolor="#ffffff"
   bordercolor="#666666"
   borderopacity="1"
   objecttolerance="10"
   gridtolerance="10"
   guidetolerance="10"
   inkscape:pageopacity="0"
   inkscape:pageshadow="2"
   inkscape:window-width="1920"
   inkscape:window-height="1011"
   id="namedview10"
   showgrid="true"
   inkscape:zoom="41.7193"
   inkscape:cx="8.5266179"
   inkscape:cy="8.9840781"
   inkscape:window-x="1920"
   inkscape:window-y="32"
   inkscape:window-maximized="1"
   inkscape:current-layer="svg8">
  <inkscape:grid
     type="xygrid"
     id="grid829" />
</sodipodi:namedview>
/&amp;gt;<path
   d="M 14,2.1850295 C 7.9248677,2.1850295 3,7.0270567 3,13 h 11 z"
   id="path2"
   inkscape:connector-curvature="0"
   style="fill:#b3b3b3;stroke-width:1.09070933" />
<path
   d="m 13.5,1.5000003 c -2.465286,0 -4.7351499,0.8149996 -6.5664062,2.1855469 -0.1741358,0.1303265 -0.3438242,0.266038 -0.5097657,0.40625 -0.03754,0.031548 -0.076172,0.061714 -0.1132812,0.09375 C 6.1936028,4.2870538 6.0812942,4.3937087 5.96875,4.5000003 5.8881823,4.5756735 5.8067707,4.6504761 5.7285156,4.7285159 5.6504758,4.806771 5.5756732,4.8881826 5.5,4.9687503 5.3937084,5.0812945 5.2870535,5.1936031 5.1855469,5.3105472 5.1535106,5.3476565 5.1233446,5.3862885 5.0917969,5.4238284 4.9515849,5.5897699 4.8158734,5.7594583 4.6855469,5.9335941 3.3149996,7.7648504 2.5,10.034714 2.5,12.5 h 1 C 3.5,12.154822 3.516641,11.814686 3.550781,11.478516 4.062881,6.4359556 8.3223301,2.5000003 13.5,2.5000003 Z"
   id="path6"
   style="fill:#1463a5;stroke:#1463a5;stroke-opacity:1;fill-opacity:1"
   inkscape:connector-curvature="0" />
<path
   style="fill:#808080;fill-opacity:1"
   d="M 2 0 C 1.446 0 1 0.446 1 1 L 1 3 C 1 3.554 1.446 4 2 4 L 4 4 C 4.554 4 5 3.554 5 3 L 5 3.0429688 L 14 3.0429688 L 14 1 L 5 1 C 5 0.446 4.554 0 4 0 L 2 0 z "
   id="path4" />
<rect
   style="opacity:0.7;vector-effect:none;fill:#000000;fill-opacity:1;stroke:none;stroke-width:1;stroke-linecap:round;stroke-linejoin:round;stroke-miterlimit:4;stroke-dasharray:none;stroke-dashoffset:0;stroke-opacity:1"
   id="rect9084-4"
   width="4"
   height="4"
   x="12"
   y="-2.3841858e-07" />
<rect
   style="opacity:1;vector-effect:none;fill:#aee3f8;fill-opacity:1;stroke:none;stroke-width:1;stroke-linecap:round;stroke-linejoin:round;stroke-miterlimit:4;stroke-dasharray:none;stroke-dashoffset:0;stroke-opacity:1"
   id="rect9101-4"
   width="2"
   height="2"
   x="13"
   y="0.99999976" />
<rect
   y="12"
   x="1"
   height="4"
   width="4"
   id="rect841"
   style="opacity:0.7;vector-effect:none;fill:#000000;fill-opacity:1;stroke:none;stroke-width:1;stroke-linecap:round;stroke-linejoin:round;stroke-miterlimit:4;stroke-dasharray:none;stroke-dashoffset:0;stroke-opacity:1" />
<rect
   y="13"
   x="2"
   height="2"
   width="2"
   id="rect843"
   style="opacity:1;vector-effect:none;fill:#aee3f8;fill-opacity:1;stroke:none;stroke-width:1;stroke-linecap:round;stroke-linejoin:round;stroke-miterlimit:4;stroke-dasharray:none;stroke-dashoffset:0;stroke-opacity:1" />
<rect
   style="opacity:1;fill:#ffffff;fill-opacity:1;fill-rule:nonzero;stroke:none;stroke-width:4;stroke-linecap:round;stroke-linejoin:round;stroke-miterlimit:4;stroke-dasharray:none;stroke-opacity:1"
   id="rect853"
   width="2"
   height="2"
   x="2"
   y="1"
   ry="0" />
</svg>

<svg xmlns="http://www.w3.org/2000/svg" viewBox="0 0 16 16">/&amp;gt;<path d="M14 2.185C7.925 2.185 3 7.027 3 13h11z" fill="#b3b3b3"/><path d="M13.5 1.5a10.917 10.917 0 00-7.076 2.592l-.113.094c-.117.101-.23.208-.342.314-.08.076-.162.15-.24.229-.079.078-.153.16-.229.24-.106.112-.213.225-.314.342l-.094.113A10.917 10.917 0 002.5 12.5h1c0-.345.017-.685.05-1.021C4.064 6.436 8.323 2.5 13.5 2.5z" fill="#1463a5" stroke="#1463a5"/><path d="M2 0c-.554 0-1 .446-1 1v2c0 .554.446 1 1 1h2c.554 0 1-.446 1-1v.043h9V1H5c0-.554-.446-1-1-1H2z" fill="gray"/><path opacity=".7" d="M12 0h4v4h-4z"/><path fill="#aee3f8" d="M13 1h2v2h-2z"/><path opacity=".7" d="M1 12h4v4H1z"/><path fill="#aee3f8" d="M2 13h2v2H2z"/><rect width="2" height="2" x="2" y="1" ry="0" fill="#fff"/></svg>
